X:1037
M:C|
L:1/8
Q:1/2=104
K:G
g>ag>e g>dd>g|e>fg>a b>ef>g|g>ag>e d>Bg>e|dB`AG  E2D>E:|
g>ag>e g>dd>g|e>fg>a b>ee>f|g>ag>e d>Bg>e|d>BA>G E2D>E:|

